X:1
T:The Suncook Town Tragedy
M:3/4
L:1/8
K:C
 C2| EF E3 C| ED C3 C| CE F3 D| EF G3 G| AB c3 G| BA G3 C| EG F3 B,|\
 DC C2||

